admin/src/theme/img/safetyequipment/1.svg

<svg width="32" height="32" viewBox="0 0 32 32" xmlns="http://www.w3.org/2000/svg">
  <g fill="none" fill-rule="evenodd">
    <path d="m14.04 12.5885714 1.9428571-10.28571426 1.9828572 10.28571426L27.8685714 9.16l-7.9257143 6.8571429 7.9257143 6.8171428-9.9028571-3.4285714-1.9828572 10.2857143L14.04 19.4057143l-9.90285714 3.4285714 7.92571424-6.8171428L4.13142857 9.16l9.90285713 3.4285714H14.04Zm1.9428571 1.5257143c-.5085714 0-.9485714.1828572-1.3142857.5542857-.3714285.3657143-.5542857.8171429-.5542857 1.3542857 0 .5371429.1828572.9485715.5542857 1.3142858.3657143.3657142.8057143.5542857 1.3142857.5542857.5314286 0 .9828572-.1828572 1.3542858-.5542857.3714285-.3714286.5542857-.8057143.5542857-1.3142858 0-.5314285-.1828572-.9828571-.5542857-1.3542857-.3657143-.3657143-.8171429-.5542857-1.3542858-.5542857Z" fill="#EC0E0E" fill-rule="nonzero"/>
    <path d="M0 0h32v32H0z"/>
  </g>
</svg>

<?xml version="1.0" encoding="UTF-8"?>
<svg width="32px" height="32px" viewBox="0 0 32 32" version="1.1" xmlns="http://www.w3.org/2000/svg" xmlns:xlink="http://www.w3.org/1999/xlink">
    <title>103F2DED-D1A2-4EA8-A861-99CE974381C7</title>
    <g id="Squat-laskuri" stroke="none" stroke-width="1" fill="none" fill-rule="evenodd">
        <g id="colors_and_typography" transform="translate(-718.000000, -1098.000000)">
            <g id="turvalaite_ikonit" transform="translate(718.000000, 906.000000)">
                <g id="majakka" transform="translate(0.000000, 192.000000)">
                    <path d="M14.04,12.5885714 L15.9828571,2.30285714 L17.9657143,12.5885714 L27.8685714,9.16 L19.9428571,16.0171429 L27.8685714,22.8342857 L17.9657143,19.4057143 L15.9828571,29.6914286 L14.04,19.4057143 L4.13714286,22.8342857 L12.0628571,16.0171429 L4.13142857,9.16 L14.0342857,12.5885714 L14.04,12.5885714 Z M15.9828571,14.1142857 C15.4742857,14.1142857 15.0342857,14.2971429 14.6685714,14.6685714 C14.2971429,15.0342857 14.1142857,15.4857143 14.1142857,16.0228571 C14.1142857,16.56 14.2971429,16.9714286 14.6685714,17.3371429 C15.0342857,17.7028571 15.4742857,17.8914286 15.9828571,17.8914286 C16.5142857,17.8914286 16.9657143,17.7085714 17.3371429,17.3371429 C17.7085714,16.9657143 17.8914286,16.5314286 17.8914286,16.0228571 C17.8914286,15.4914286 17.7085714,15.04 17.3371429,14.6685714 C16.9714286,14.3028571 16.52,14.1142857 15.9828571,14.1142857 Z" id="Shape" fill="#EC0E0E" fill-rule="nonzero"></path>
                    <rect id="Rectangle" x="0" y="0" width="32" height="32"></rect>
                </g>
            </g>
        </g>
    </g>
</svg>
